packages/components/bolt-icons/src/svgs/product/services/careers.svg

<?xml version="1.0" encoding="UTF-8" standalone="no"?>
<svg width="32px" height="32px" viewBox="0 0 32 32" version="1.1" xmlns="http://www.w3.org/2000/svg" xmlns:xlink="http://www.w3.org/1999/xlink">
    <!-- Generator: Sketch 47.1 (45422) - http://www.bohemiancoding.com/sketch -->
    <title>Icon/How/Careers</title>
    <desc>Created with Sketch.</desc>
    <defs></defs>
    <g id="Symbols" stroke="none" stroke-width="1" fill="none" fill-rule="evenodd">
        <g id="Icon/How/Careers" fill="#1F2555">
            <path d="M28,29 L4,29 C2.896,29 2,28.104 2,27.001 L2,15.001 L30,15.001 L30,27.001 C30,28.104 29.104,29 28,29 L28,29 Z M4,7.001 L28,7.001 C29.104,7.001 30,7.896 30,9 L30,13 L2,13 L2,9 C2,7.896 2.896,7.001 4,7.001 L4,7.001 Z M12,4.001 C12,3.448 12.448,3 13,3 L19,3 C19.553,3 20,3.448 20,4.001 L20,5 L19,5 L13,5 L12,5 L12,4.001 Z M28,5 L22,5 L22,2 C22,1.448 21.553,1 21,1 L11,1 C10.448,1 10,1.448 10,2 L10,5 L4,5 C1.791,5 0,6.791 0,9 L0,27.001 C0,29.21 1.791,31.001 4,31.001 L28,31.001 C30.209,31.001 32,29.21 32,27.001 L32,9 C32,6.791 30.209,5 28,5 L28,5 Z" id="Fill-1"></path>
        </g>
    </g>
</svg>

<svg id="b87fc619-f20c-4914-9ac6-c7daf1dc990c" data-name="Layer 1" xmlns="http://www.w3.org/2000/svg" viewBox="0 0 32 30"><title>careers</title><path id="b064cdeb-f788-4e0b-b1b8-3f22338faf4d" data-name="Fill-1" d="M28,29H4a2,2,0,0,1-2-2V15H30V27a2,2,0,0,1-2,2ZM4,7H28a2,2,0,0,1,2,2v4H2V9A2,2,0,0,1,4,7Zm8-3a.94.94,0,0,1,1-1h6a.94.94,0,0,1,1,1V5H12ZM28,5H22V2a.94.94,0,0,0-1-1H11a.94.94,0,0,0-1,1V5H4A4,4,0,0,0,0,9V27a4,4,0,0,0,4,4H28a4,4,0,0,0,4-4V9a4,4,0,0,0-4-4Z" transform="translate(0 -1)" fill="#1f2555" fill-rule="evenodd"/></svg>
